/* Compiled with JS2EEL v0.9.1 */

desc:sd_empty

slider1:someVar=0 < 0, 1, 0.1 >Useless slider

in_pin:In 0
in_pin:In 1
out_pin:In 0
out_pin:In 1


@sample


/* Channel 0 */

spl0 = spl0;

/* Channel 1 */

spl1 = spl1;



