/* Compiled with JS2EEL v0.6.4 */

desc:sd_gain

slider1:gainDb=0 < -18, 18, 0.1 >Gain (dB)

in_pin:In 0
in_pin:In 1
out_pin:In 0
out_pin:In 1


@init

gain = 0;


@slider

gain = (10 ^ (gainDb / (20)));


@sample


/* Channel 0 */

spl0 *= gain;

/* Channel 1 */

spl1 *= gain;



