/* Compiled with JS2EEL v0.9.1 */

desc:sd_volume_2

slider1:volume=0 < -150, 18, 0.1 >Volume [dB]

in_pin:In 0
in_pin:In 1
out_pin:In 0
out_pin:In 1


@init

target = 0;


@slider

volume > -149.9 ? (
target = (10 ^ (volume / (20)));
) : (target = 0;
);


@sample


/* Channel 0 */

spl0 *= target;

/* Channel 1 */

spl1 *= target;



